X:1
T:Psalm 17
T:V 7
L:1/4
M:16/4
I:linebreak $
K:C
V:1 treble nm="Pipe Organ" snm="Org."
V:1
 G2 ^F2 A2 B A G E F3 z |$ D2 A A B2 B2 d d ^c2 B3 z |$ ^F2 B B A2 d2 d ^c B2 A3 z |$ %3
w: 'n Be- ter lot is dan my deel:|as ek ont- waak, nรก my be- nou- ing,|sal ek U sien in kla- re\_aan- skou- ing,|
[M:14/4] ^F2 E D E2 F2 G G F3 z |] %4
w: ver- sa- dig met u beeld ge- heel.|

